X:9
T:Jig - title unknown
S:Flos Headford <flos:madasafish.com> tradtunes 2010-4-7
M:6/8
L:1/8
Q:3/8=120
K:G
|: BcB G2B | ded B3 | ded d2B | BAG A3 |\ 
BcB G2B | ded B3 | ded cBA | G3 G3 :|] 
|: g3 f3 | e3 d3 | ded c2A | e2d d3 |\ 
g3 f3 | e3 d3 | ded cBA | G3 G3 :|] 

